icons/bag-circle-block.svg

<svg xmlns="http://www.w3.org/2000/svg" viewBox="0 0 24 24" fill="currentColor">
  <path d="M10.2804 4.00533c.8044-.8044 1.9392-.96631 2.8767-.48572L9.82021 6.9306c-.51158-.94656-.3582-2.10692.46019-2.92527Zm3.5393 3.53932c-.8297.82969-2.049.96304-2.9548.46309l3.3785-3.45355c.5548.958.4135 2.15322-.4237 2.99046ZM9.21969 2.94467c1.59291-1.59289 4.06781-1.59289 5.66071 0 1.5929 1.59289 1.5929 4.06774 0 5.66064-1.5771 1.57699-4.1614 1.61219-5.67121-.01055-1.58238-1.59325-1.57888-4.06071.0105-5.65009ZM6.18035 6.70513c.2929-.29289.2929-.76776 0-1.06066-.29289-.29289-.76776-.29289-1.06066 0-3.79289 3.7929-3.79289 9.96773 0 13.76063 3.7929 3.7929 9.96781 3.7929 13.76071 0 3.7929-3.7929 3.7929-9.96773 0-13.76063-.2929-.29289-.7678-.29289-1.0607 0-.2929.2929-.2929.76777 0 1.06066 3.0749 3.07487 3.2017 8.00467.3804 11.23257v-3.463c0-2.0142-1.6358-3.65-3.6501-3.65H9.45007c-2.01421 0-3.65002 1.6358-3.65002 3.65v3.4631c-2.82135-3.2279-2.69458-8.15778.3803-11.23267ZM16.7001 14.4747v4.8071c-2.8126 1.9573-6.5874 1.9573-9.40005 0v-4.8071c0-1.1858.96424-2.15 2.15002-2.15H14.55c1.1858 0 2.1501.9642 2.1501 2.15Zm-6.1973.0932c-.2799-.3053-.7543-.3259-1.05964-.0461-.30534.2799-.32596.7544-.04607 1.0597 1.40951 1.5377 3.80371 1.503 5.28321.0235.2929-.2929.2929-.7677 0-1.0606-.2929-.2929-.7678-.2929-1.0607 0-.9205.9205-2.3263.8858-3.1168.0235Z"/>
</svg>

<svg width="24" height="24" viewBox="0 0 24 24" fill="none" xmlns="http://www.w3.org/2000/svg">
<path fill-rule="evenodd" clip-rule="evenodd" d="M10.2804 4.00533C11.0848 3.20093 12.2196 3.03902 13.1571 3.51961L9.82021 6.9306C9.30863 5.98404 9.46201 4.82368 10.2804 4.00533ZM13.8197 7.54465C12.99 8.37434 11.7707 8.50769 10.8649 8.00774L14.2434 4.55419C14.7982 5.51219 14.6569 6.70741 13.8197 7.54465ZM9.21969 2.94467C10.8126 1.35178 13.2875 1.35178 14.8804 2.94467C16.4733 4.53756 16.4733 7.01241 14.8804 8.60531C13.3033 10.1823 10.719 10.2175 9.20919 8.59476C7.62681 7.00151 7.63031 4.53405 9.21969 2.94467ZM6.18035 6.70513C6.47325 6.41224 6.47325 5.93737 6.18035 5.64447C5.88746 5.35158 5.41259 5.35158 5.11969 5.64447C1.3268 9.43737 1.3268 15.6122 5.11969 19.4051C8.91259 23.198 15.0875 23.198 18.8804 19.4051C22.6733 15.6122 22.6733 9.43737 18.8804 5.64447C18.5875 5.35158 18.1126 5.35158 17.8197 5.64447C17.5268 5.93737 17.5268 6.41224 17.8197 6.70513C20.8946 9.78 21.0214 14.7098 18.2001 17.9377V14.4747C18.2001 12.4605 16.5643 10.8247 14.55 10.8247H9.45007C7.43586 10.8247 5.80005 12.4605 5.80005 14.4747V17.9378C2.9787 14.7099 3.10547 9.78002 6.18035 6.70513ZM16.7001 14.4747V19.2818C13.8875 21.2391 10.1127 21.2391 7.30005 19.2818V14.4747C7.30005 13.2889 8.26429 12.3247 9.45007 12.3247H14.55C15.7358 12.3247 16.7001 13.2889 16.7001 14.4747ZM10.5028 14.5679C10.2229 14.2626 9.7485 14.242 9.44316 14.5218C9.13782 14.8017 9.1172 15.2762 9.39709 15.5815C10.8066 17.1192 13.2008 17.0845 14.6803 15.605C14.9732 15.3121 14.9732 14.8373 14.6803 14.5444C14.3874 14.2515 13.9125 14.2515 13.6196 14.5444C12.6991 15.4649 11.2933 15.4302 10.5028 14.5679Z" fill="black"/>
</svg>
